public/avatar/emote/117.svg

<svg xmlns:xlink="http://www.w3.org/1999/xlink" height="100.8" width="132.65" xmlns="http://www.w3.org/2000/svg"><g transform="translate(77.75 73.55)"><use height="5.3" transform="translate(-12.2 -1.8)" width="24.45" xlink:href="#a"/><use height="9.95" transform="matrix(.878 0 0 1.1797 -11.19 1.851)" width="25.5" xlink:href="#b"/><use height="7" transform="matrix(-.9765 .2122 .2122 .9765 9.096 -6.696)" width="10.05" xlink:href="#c"/><use height="7" transform="rotate(12.263 26.854 -45.721) scale(.9993)" width="10.05" xlink:href="#c"/></g><defs><path d="m.4-1.75.6.1 3.8.6 1.65.45L8.7.25l2.85 1.3q.6.6.7 1.3 0 1.05-3.15.45l-.4-.1L7.4 3l-2.5-.25L.95 2.5l-6.3.15-2.5.35-.25.05-.6.1-3.45-.15-.05-.2q0-1.1 2.35-2.45l3.15-1.2.05-.05.55-.15 4.9-.75 1.6.05" fill-opacity=".153" fill-rule="evenodd" transform="translate(12.2 1.8)" id="a"/><path d="M.3-.4 9 2.4Q4.2 3.7-.05 5.6" fill="none" stroke="#333" stroke-linecap="round" stroke-linejoin="round" transform="translate(.55 .9)" id="e"/><use height="9.95" width="25.5" xlink:href="#d" id="b"/><use height="7" width="10.05" xlink:href="#e" id="c"/><g id="d"><path d="M8.05.2q.25 1.25-.95 2.85h-1L5.7 3v-.45l-.05-.5-.2-.55q-.2-.35-.7-.35-.55-.05-.8.35-.25.35-.35.85l-.05.55-10.25.65q-.65-.7-.95-2.75L5.2-.05 8.05.2" fill="#fff" fill-rule="evenodd" transform="translate(13.2 .55)"/><path d="M-6.6 6.85q5.85-2.7 12.85-.2L.3 8.9l-6.9-2.05" fill="#c00" fill-rule="evenodd" transform="translate(13.2 .55)"/><path d="M-7.65.8q.3 2.05.95 2.75L3.55 2.9l.05-.55q.1-.5.35-.85.25-.4.8-.35.5 0 .7.35l.2.55.05.5V3l.4.05h1q1.2-1.6.95-2.85l2.3.25q4.25 2.1-4.1 6.2-7-2.5-12.85.2-4.55-1.75-5.75-3.1-1.2-1.4 2-2.5l2.7-.45" fill-rule="evenodd" transform="translate(13.2 .55)"/><path d="M8.05.2 5.2-.05-7.65.8l-2.7.45q-3.2 1.1-2 2.5 1.2 1.35 5.75 3.1L.3 8.9l5.95-2.25q8.35-4.1 4.1-6.2L8.05.2Z" fill="none" stroke="#333" stroke-linecap="round" stroke-linejoin="round" transform="translate(13.2 .55)"/></g></defs></svg>

<?xml version="1.0" encoding="UTF-8" standalone="no"?>
<svg xmlns:xlink="http://www.w3.org/1999/xlink" height="100.8px" width="132.65px" xmlns="http://www.w3.org/2000/svg">
  <g transform="matrix(1.0, 0.0, 0.0, 1.0, 77.75, 73.55)">
    <use height="5.3" transform="matrix(1.0, 0.0, 0.0, 1.0, -12.2, -1.8)" width="24.45" xlink:href="#shape0"/>
    <use height="9.95" transform="matrix(0.878, 0.0, 0.0, 1.1797, -11.1899, 1.8511)" width="25.5" xlink:href="#sprite0"/>
    <use height="7.0" transform="matrix(-0.9765, 0.2122, 0.2122, 0.9765, 9.0961, -6.6956)" width="10.05" xlink:href="#sprite1"/>
    <use height="7.0" transform="matrix(0.9765, 0.2122, -0.2122, 0.9765, -9.0961, -6.7456)" width="10.05" xlink:href="#sprite1"/>
  </g>
  <defs>
    <g id="shape0" transform="matrix(1.0, 0.0, 0.0, 1.0, 12.2, 1.8)">
      <path d="M0.4 -1.75 L1.0 -1.65 4.8 -1.05 6.45 -0.6 8.7 0.25 11.55 1.55 Q12.15 2.15 12.25 2.85 12.25 3.9 9.1 3.3 L8.7 3.2 7.4 3.0 4.9 2.75 0.95 2.5 -5.35 2.65 -7.85 3.0 -8.1 3.05 -8.7 3.15 -12.15 3.0 -12.2 2.8 Q-12.2 1.7 -9.85 0.35 L-6.7 -0.85 -6.65 -0.9 -6.1 -1.05 -1.2 -1.8 0.4 -1.75" fill="#000000" fill-opacity="0.15294118" fill-rule="evenodd" stroke="none"/>
    </g>
    <g id="sprite0" transform="matrix(1.0, 0.0, 0.0, 1.0, 13.2, 0.55)">
      <use height="9.95" transform="matrix(1.0, 0.0, 0.0, 1.0, -13.2, -0.55)" width="25.5" xlink:href="#shape1"/>
    </g>
    <g id="shape1" transform="matrix(1.0, 0.0, 0.0, 1.0, 13.2, 0.55)">
      <path d="M8.05 0.2 Q8.3 1.45 7.1 3.05 L6.1 3.05 5.7 3.0 5.7 2.85 5.7 2.55 5.65 2.05 5.45 1.5 Q5.25 1.15 4.75 1.15 4.2 1.1 3.95 1.5 3.7 1.85 3.6 2.35 L3.55 2.9 -6.7 3.55 Q-7.35 2.85 -7.65 0.8 L5.2 -0.05 8.05 0.2" fill="#ffffff" fill-rule="evenodd" stroke="none"/>
      <path d="M-6.6 6.85 Q-0.75 4.15 6.25 6.65 L0.3 8.9 -6.6 6.85" fill="#cc0000" fill-rule="evenodd" stroke="none"/>
      <path d="M-7.65 0.8 Q-7.35 2.85 -6.7 3.55 L3.55 2.9 3.6 2.35 Q3.7 1.85 3.95 1.5 4.2 1.1 4.75 1.15 5.25 1.15 5.45 1.5 L5.65 2.05 5.7 2.55 5.7 2.85 5.7 3.0 6.1 3.05 7.1 3.05 Q8.3 1.45 8.05 0.2 L10.35 0.45 Q14.6 2.55 6.25 6.65 -0.75 4.15 -6.6 6.85 -11.15 5.1 -12.35 3.75 -13.55 2.35 -10.35 1.25 L-7.65 0.8" fill="#000000" fill-rule="evenodd" stroke="none"/>
      <path d="M8.05 0.2 L5.2 -0.05 -7.65 0.8 -10.35 1.25 Q-13.55 2.35 -12.35 3.75 -11.15 5.1 -6.6 6.85 L0.3 8.9 6.25 6.65 Q14.6 2.55 10.35 0.45 L8.05 0.2 Z" fill="none" stroke="#333333" stroke-linecap="round" stroke-linejoin="round" stroke-width="1.0"/>
    </g>
    <g id="sprite1" transform="matrix(1.0, 0.0, 0.0, 1.0, 0.55, 0.9)">
      <use height="7.0" transform="matrix(1.0, 0.0, 0.0, 1.0, -0.55, -0.9)" width="10.05" xlink:href="#shape2"/>
    </g>
    <g id="shape2" transform="matrix(1.0, 0.0, 0.0, 1.0, 0.55, 0.9)">
      <path d="M0.3 -0.4 L9.0 2.4 Q4.2 3.7 -0.05 5.6" fill="none" stroke="#333333" stroke-linecap="round" stroke-linejoin="round" stroke-width="1.0"/>
    </g>
  </defs>
</svg>
